Reedweeks/img/ct_6.svg

<svg width="24" height="24" viewBox="0 0 24 24" fill="none" xmlns="http://www.w3.org/2000/svg">
<g clip-path="url(#clip0_656:4707)">
<path d="M15.4705 3.64326C15.3949 3.8507 15.1655 3.95754 14.958 3.88183C11.311 2.55144 7.12013 3.81302 4.85018 7.13755C4.72585 7.3197 4.47723 7.36698 4.29458 7.2423C4.11223 7.11781 4.06535 6.86904 4.18983 6.68674C6.66797 3.05732 11.2447 1.67625 15.232 3.13068C15.4394 3.20634 15.5462 3.43582 15.4705 3.64326V3.64326ZM3.53043 8.52651H9.9977C10.1841 7.59396 11.0088 6.88903 11.9953 6.88903C13.1187 6.88903 14.0326 7.80295 14.0326 8.9263C14.0326 10.0497 13.1187 10.9636 11.9953 10.9636C11.0088 10.9636 10.184 10.2587 9.9977 9.32609H3.77386C1.95297 14.9135 6.14105 20.6518 11.9953 20.6518C17.5008 20.6518 21.6584 15.5274 20.4276 10.0897C20.3789 9.8743 20.514 9.66026 20.7293 9.61154C20.9446 9.56261 21.1587 9.69789 21.2074 9.91323C22.5512 15.8505 18.0127 21.4514 11.9953 21.4514C5.4736 21.4514 0.880392 14.9476 3.11311 8.78758C3.17707 8.61127 3.35198 8.50782 3.53043 8.52651V8.52651ZM10.7576 8.9263C10.7576 9.60879 11.3129 10.164 11.9953 10.164C12.6778 10.164 13.233 9.60884 13.233 8.9263C13.233 8.24386 12.6778 7.68861 11.9953 7.68861C11.3129 7.68861 10.7576 8.24386 10.7576 8.9263ZM14.3835 16.653C14.3835 17.3895 13.7844 17.9886 13.048 17.9886H10.9427C10.2063 17.9886 9.60721 17.3895 9.60721 16.653C9.60721 15.9167 10.2063 15.3176 10.9427 15.3176H13.048C13.7844 15.3176 14.3835 15.9166 14.3835 16.653ZM13.5839 16.653C13.5839 16.3576 13.3435 16.1171 13.048 16.1171H10.9427C10.6472 16.1171 10.4068 16.3576 10.4068 16.653C10.4068 16.9485 10.6472 17.189 10.9427 17.189H13.048C13.3435 17.189 13.5839 16.9485 13.5839 16.653ZM15.0265 8.9263C15.0265 9.14708 15.2055 9.32609 15.4263 9.32609H18.1421C18.3629 9.32609 18.5419 9.14708 18.5419 8.9263C18.5419 8.70552 18.3629 8.52651 18.1421 8.52651H15.4263C15.2055 8.52651 15.0265 8.70552 15.0265 8.9263ZM22.9692 8.23452C22.758 8.29898 22.639 8.52242 22.7035 8.7336C24.9015 15.9344 19.4839 23.2004 11.9953 23.2004C5.82292 23.2004 0.801284 18.1788 0.801284 12.0064C0.801284 3.74356 9.50776 -1.69091 16.9247 1.95321C17.1229 2.0505 17.3624 1.96885 17.4598 1.77065C17.5571 1.57251 17.4754 1.33289 17.2773 1.23554C9.36858 -2.64985 0.00170898 3.09025 0.00170898 12.0064C0.00170898 18.6351 5.36591 24 11.9953 24C20.0527 24 25.8209 16.2077 23.4682 8.50013C23.4038 8.28899 23.1802 8.1702 22.9692 8.23452V8.23452ZM20.028 7.75377C19.7351 7.46088 19.735 6.98663 20.028 6.69364C20.3209 6.40069 20.7951 6.40064 21.0881 6.69364C21.0881 6.69369 21.0883 6.69389 21.0881 6.69369C21.381 6.98663 21.3811 7.46078 21.0881 7.75377C20.7958 8.04597 20.3203 8.04597 20.028 7.75377ZM22.3955 5.95158C22.5516 5.79546 22.5517 5.54235 22.3955 5.38618C21.38 4.37062 19.7362 4.37047 18.7205 5.38623C18.5644 5.54235 18.5644 5.79546 18.7205 5.95158C18.8766 6.10765 19.1297 6.1077 19.2859 5.95153C19.989 5.24846 21.1269 5.24841 21.8301 5.95158C21.9863 6.1077 22.2394 6.10765 22.3955 5.95158V5.95158ZM17.2364 4.46747C17.3925 4.62354 17.6456 4.62354 17.8018 4.46747C19.325 2.94408 21.7907 2.94383 23.3143 4.46747C23.4704 4.62359 23.7235 4.62354 23.8796 4.46747C24.0358 4.3113 24.0358 4.05824 23.8796 3.90207C22.0437 2.0662 19.0724 2.06605 17.2364 3.90207C17.0802 4.05819 17.0802 4.31135 17.2364 4.46747V4.46747Z" fill="#3B3943"/>
</g>
<defs>
<clipPath id="clip0_656:4707">
<rect width="24" height="24" fill="white"/>
</clipPath>
</defs>
</svg>

<svg width="24" height="24" fill="none" xmlns="http://www.w3.org/2000/svg"><g clip-path="url(#a)"><path d="M15.47 3.643a.4.4 0 0 1-.512.239A8.655 8.655 0 0 0 4.85 7.138a.4.4 0 1 1-.66-.451A9.455 9.455 0 0 1 15.232 3.13a.4.4 0 0 1 .239.512ZM3.53 8.527h6.468a2.04 2.04 0 0 1 1.997-1.638 2.04 2.04 0 0 1 2.038 2.037 2.04 2.04 0 0 1-2.038 2.038 2.04 2.04 0 0 1-1.997-1.638H3.774c-1.821 5.588 2.367 11.326 8.221 11.326 5.506 0 9.663-5.125 8.433-10.562a.4.4 0 0 1 .78-.177c1.343 5.938-3.195 11.538-9.213 11.538-6.521 0-11.115-6.503-8.882-12.663a.4.4 0 0 1 .417-.261Zm7.228.4a1.24 1.24 0 0 0 1.237 1.237 1.24 1.24 0 0 0 0-2.475 1.24 1.24 0 0 0-1.237 1.237Zm3.626 7.726c0 .737-.6 1.336-1.336 1.336h-2.105c-.737 0-1.336-.6-1.336-1.336 0-.736.6-1.335 1.336-1.335h2.105c.736 0 1.335.599 1.335 1.335Zm-.8 0a.537.537 0 0 0-.536-.536h-2.105a.537.537 0 0 0 0 1.072h2.105c.296 0 .536-.24.536-.536Zm1.443-7.727c0 .221.179.4.4.4h2.715a.4.4 0 0 0 0-.8h-2.716a.4.4 0 0 0-.4.4Zm7.942-.691a.4.4 0 0 0-.266.499c2.198 7.2-3.22 14.466-10.708 14.466C5.823 23.2.801 18.18.801 12.006c0-8.262 8.707-13.697 16.124-10.053a.4.4 0 0 0 .352-.717C9.37-2.65.002 3.09.002 12.006.002 18.636 5.366 24 11.995 24c8.058 0 13.826-7.792 11.473-15.5a.4.4 0 0 0-.499-.265Zm-2.941-.481a.75.75 0 1 1 1.06-1.06.75.75 0 1 1-1.06 1.06Zm2.367-1.802a.4.4 0 0 0 0-.566 2.597 2.597 0 0 0-3.674 0 .4.4 0 1 0 .565.566 1.798 1.798 0 0 1 2.544 0 .4.4 0 0 0 .566 0Zm-5.159-1.485a.4.4 0 0 0 .566 0 3.896 3.896 0 0 1 5.512 0 .4.4 0 1 0 .566-.565 4.695 4.695 0 0 0-6.644 0 .4.4 0 0 0 0 .565Z" fill="#3B3943"/></g><defs><clipPath id="a"><path fill="#fff" d="M0 0h24v24H0z"/></clipPath></defs></svg>
